source/Icon/connection-point.svg

<svg width="32" height="32" viewBox="0 0 48 48" fill="none" xmlns="http://www.w3.org/2000/svg">
    <path d="M5 24L43 24" stroke="#000000" stroke-width="4" stroke-linecap="round" stroke-linejoin="round"/>
    <path d="M28 4H20C18.8954 4 18 4.89543 18 6V14C18 15.1046 18.8954 16 20 16H28C29.1046 16 30 15.1046 30 14V6C30 4.89543 29.1046 4 28 4Z" fill="#2F88FF" stroke="#000000" stroke-width="4" stroke-linejoin="round"/>
    <path d="M16 32H8C6.89543 32 6 32.8954 6 34V42C6 43.1046 6.89543 44 8 44H16C17.1046 44 18 43.1046 18 42V34C18 32.8954 17.1046 32 16 32Z" fill="#2F88FF" stroke="#000000" stroke-width="4" stroke-linejoin="round"/>
    <path d="M40 32H32C30.8954 32 30 32.8954 30 34V42C30 43.1046 30.8954 44 32 44H40C41.1046 44 42 43.1046 42 42V34C42 32.8954 41.1046 32 40 32Z" fill="#2F88FF" stroke="#000000" stroke-width="4" stroke-linejoin="round"/>
    <path d="M24 24V16" stroke="#000000" stroke-width="4" stroke-linecap="round" stroke-linejoin="round"/>
    <path d="M36 32V24" stroke="#000000" stroke-width="4" stroke-linecap="round" stroke-linejoin="round"/>
    <path d="M12 32V24" stroke="#000000" stroke-width="4" stroke-linecap="round" stroke-linejoin="round"/>
</svg>

<svg width="48" height="48" viewBox="0 0 48 48" fill="none" xmlns="http://www.w3.org/2000/svg"><path stroke-linejoin="round" stroke-linecap="round" stroke-width="4" stroke="#333" d="M5 24h38"/><path stroke-linejoin="round" stroke-width="4" stroke="#333" d="M28 4h-8a2 2 0 0 0-2 2v8a2 2 0 0 0 2 2h8a2 2 0 0 0 2-2V6a2 2 0 0 0-2-2ZM16 32H8a2 2 0 0 0-2 2v8a2 2 0 0 0 2 2h8a2 2 0 0 0 2-2v-8a2 2 0 0 0-2-2ZM40 32h-8a2 2 0 0 0-2 2v8a2 2 0 0 0 2 2h8a2 2 0 0 0 2-2v-8a2 2 0 0 0-2-2Z"/><path stroke-linejoin="round" stroke-linecap="round" stroke-width="4" stroke="#333" d="M24 24v-8M36 32v-8M12 32v-8"/></svg>
